src/svg/logo-gitlab.svg

<?xml version="1.0" encoding="utf-8"?>
<!-- Generator: Adobe Illustrator 24.1.0, SVG Export Plug-In . SVG Version: 6.00 Build 0)  -->
<svg version="1.1" id="Layer_1" xmlns="http://www.w3.org/2000/svg" xmlns:xlink="http://www.w3.org/1999/xlink" x="0px" y="0px"
	 viewBox="0 0 512 512" style="enable-background:new 0 0 512 512;" xml:space="preserve">
<path style="fill:#010101;" d="M494.07,281.6l-25.18-78.08c-0.13-0.72-0.34-1.42-0.61-2.1L417.78,44.48
	c-2.76-8.31-10.49-13.88-19.17-13.82c-8.66-0.05-16.34,5.6-18.95,13.94l-48.14,149.55H179.56L131.34,44.59
	c-2.59-8.31-10.23-13.95-18.86-13.94h-0.11c-8.69,0-16.39,5.62-19.12,13.95L42.7,201.73c0,0.14-0.11,0.26-0.16,0.4l-25.63,79.48
	c-3.86,11.96,0.35,25.07,10.44,32.46l221.44,162.41c4,2.92,9.41,2.89,13.38-0.07l221.48-162.34
	C493.74,306.68,497.95,293.56,494.07,281.6 M163.08,217.09l61.72,191.76L76.63,217.09 M286.27,408.89l59.19-183.84l2.55-7.96h86.52
	L300.47,390.44 M398.8,59.31l43.37,134.83h-86.82 M324.16,217.01l-43,133.58l-25.66,79.55l-68.56-213.14 M112.27,59.31l43.46,134.83
	H68.97 M40.68,295.58c-2.14-1.57-3.04-4.36-2.21-6.9l19.03-59.03l139.58,180.62 M470.34,295.58L313.92,410.22l0.52-0.69
	L453.5,229.64l19.03,59c0.84,2.54-0.05,5.34-2.19,6.92"/>
</svg>

<svg id="Layer_1" data-name="Layer 1" xmlns="http://www.w3.org/2000/svg" viewBox="0 0 512 512"><path d="M494.07,281.6l-25.18-78.08a11,11,0,0,0-.61-2.1L417.78,44.48a20.08,20.08,0,0,0-19.17-13.82A19.77,19.77,0,0,0,379.66,44.6L331.52,194.15h-152L131.34,44.59a19.76,19.76,0,0,0-18.86-13.94h-.11a20.15,20.15,0,0,0-19.12,14L42.7,201.73c0,.14-.11.26-.16.4L16.91,281.61a29.15,29.15,0,0,0,10.44,32.46L248.79,476.48a11.25,11.25,0,0,0,13.38-.07L483.65,314.07a29.13,29.13,0,0,0,10.42-32.47m-331-64.51L224.8,408.85,76.63,217.09m209.64,191.8,59.19-183.84,2.55-8h86.52L300.47,390.44M398.8,59.31l43.37,134.83H355.35M324.16,217l-43,133.58L255.5,430.14,186.94,217M112.27,59.31l43.46,134.83H69M40.68,295.58a6.19,6.19,0,0,1-2.21-6.9l19-59L197.08,410.27M470.34,295.58,313.92,410.22l.52-.69L453.5,229.64l19,59a6.2,6.2,0,0,1-2.19,6.92"/></svg>
